images/5461309.svg

<?xml version="1.0" encoding="UTF-8"?>
<svg xmlns="http://www.w3.org/2000/svg" xmlns:xlink="http://www.w3.org/1999/xlink" width="300pt" height="300pt" viewBox="0 0 300 300" version="1.1">
<defs>
<g>
<symbol overflow="visible" id="glyph0-0">
<path style="stroke:none;" d="M 0.453125 1.59375 L 0.453125 -6.34375 L 4.953125 -6.34375 L 4.953125 1.59375 Z M 0.953125 1.09375 L 4.453125 1.09375 L 4.453125 -5.84375 L 0.953125 -5.84375 Z M 0.953125 1.09375 "/>
</symbol>
<symbol overflow="visible" id="glyph0-1">
<path style="stroke:none;" d="M 3.546875 -5.953125 C 2.898438 -5.953125 2.382812 -5.710938 2 -5.234375 C 1.625 -4.753906 1.4375 -4.101562 1.4375 -3.28125 C 1.4375 -2.445312 1.625 -1.789062 2 -1.3125 C 2.382812 -0.832031 2.898438 -0.59375 3.546875 -0.59375 C 4.191406 -0.59375 4.703125 -0.832031 5.078125 -1.3125 C 5.453125 -1.789062 5.640625 -2.445312 5.640625 -3.28125 C 5.640625 -4.101562 5.453125 -4.753906 5.078125 -5.234375 C 4.703125 -5.710938 4.191406 -5.953125 3.546875 -5.953125 Z M 3.546875 -6.6875 C 4.460938 -6.6875 5.195312 -6.375 5.75 -5.75 C 6.300781 -5.132812 6.578125 -4.3125 6.578125 -3.28125 C 6.578125 -2.238281 6.300781 -1.410156 5.75 -0.796875 C 5.195312 -0.179688 4.460938 0.125 3.546875 0.125 C 2.617188 0.125 1.878906 -0.179688 1.328125 -0.796875 C 0.773438 -1.410156 0.5 -2.238281 0.5 -3.28125 C 0.5 -4.3125 0.773438 -5.132812 1.328125 -5.75 C 1.878906 -6.375 2.617188 -6.6875 3.546875 -6.6875 Z M 3.546875 -6.6875 "/>
</symbol>
<symbol overflow="visible" id="glyph0-2">
<path style="stroke:none;" d="M 0.890625 -6.5625 L 2.078125 -6.5625 L 4.984375 -1.078125 L 4.984375 -6.5625 L 5.84375 -6.5625 L 5.84375 0 L 4.65625 0 L 1.75 -5.484375 L 1.75 0 L 0.890625 0 Z M 0.890625 -6.5625 "/>
</symbol>
<symbol overflow="visible" id="glyph0-3">
<path style="stroke:none;" d="M 0.890625 -6.5625 L 1.765625 -6.5625 L 1.765625 -3.875 L 5 -3.875 L 5 -6.5625 L 5.890625 -6.5625 L 5.890625 0 L 5 0 L 5 -3.125 L 1.765625 -3.125 L 1.765625 0 L 0.890625 0 Z M 0.890625 -6.5625 "/>
</symbol>
<symbol overflow="visible" id="glyph0-4">
<path style="stroke:none;" d="M 1.765625 -5.828125 L 1.765625 -3.359375 L 2.890625 -3.359375 C 3.296875 -3.359375 3.613281 -3.46875 3.84375 -3.6875 C 4.070312 -3.90625 4.1875 -4.207031 4.1875 -4.59375 C 4.1875 -4.988281 4.070312 -5.289062 3.84375 -5.5 C 3.613281 -5.71875 3.296875 -5.828125 2.890625 -5.828125 Z M 0.890625 -6.5625 L 2.890625 -6.5625 C 3.617188 -6.5625 4.171875 -6.394531 4.546875 -6.0625 C 4.929688 -5.726562 5.125 -5.238281 5.125 -4.59375 C 5.125 -3.945312 4.929688 -3.457031 4.546875 -3.125 C 4.171875 -2.800781 3.617188 -2.640625 2.890625 -2.640625 L 1.765625 -2.640625 L 1.765625 0 L 0.890625 0 Z M 0.890625 -6.5625 "/>
</symbol>
</g>
</defs>
<g id="surface32985">
<rect x="0" y="0" width="300" height="300" style="fill:rgb(100%,100%,100%);fill-opacity:1;stroke:none;"/>
<path style="fill:none;stroke-width:1.2;stroke-linecap:butt;stroke-linejoin:miter;stroke:rgb(0%,0%,0%);stroke-opacity:1;stroke-miterlimit:10;" d="M 35.25 135.3125 L 56.652344 122.75 "/>
<path style="fill:none;stroke-width:1.2;stroke-linecap:butt;stroke-linejoin:miter;stroke:rgb(0%,0%,0%);stroke-opacity:1;stroke-miterlimit:10;" d="M 56.652344 122.75 L 78.234375 135.003906 "/>
<path style="fill:none;stroke-width:1;stroke-linecap:butt;stroke-linejoin:miter;stroke:rgb(0%,0%,0%);stroke-opacity:1;stroke-miterlimit:10;" d="M 99.640625 122.441406 L 99.640625 122.441406 M 96.828125 123.484375 L 97.355469 124.386719 M 94.015625 124.53125 L 95.070312 126.332031 M 91.203125 125.578125 L 92.789062 128.273438 M 88.390625 126.625 L 90.503906 130.21875 M 85.582031 127.667969 L 88.21875 132.164062 M 82.769531 128.714844 L 85.933594 134.109375 M 79.957031 129.761719 L 83.652344 136.054688 M 77.144531 130.808594 L 81.367188 138 M 76.019531 131.226562 L 80.453125 138.78125 "/>
<path style="fill:none;stroke-width:1.2;stroke-linecap:butt;stroke-linejoin:miter;stroke:rgb(0%,0%,0%);stroke-opacity:1;stroke-miterlimit:10;" d="M 99.640625 122.441406 L 111.894531 100.859375 "/>
<path style="fill:none;stroke-width:1.2;stroke-linecap:butt;stroke-linejoin:miter;stroke:rgb(0%,0%,0%);stroke-opacity:1;stroke-miterlimit:10;" d="M 124.457031 122.261719 L 99.640625 122.441406 "/>
<path style="fill:none;stroke-width:1.2;stroke-linecap:butt;stroke-linejoin:miter;stroke:rgb(0%,0%,0%);stroke-opacity:1;stroke-miterlimit:10;" d="M 111.894531 100.859375 L 124.457031 122.261719 "/>
<path style="fill:none;stroke-width:1;stroke-linecap:butt;stroke-linejoin:miter;stroke:rgb(0%,0%,0%);stroke-opacity:1;stroke-miterlimit:10;" d="M 124.457031 122.261719 L 124.457031 122.261719 M 127.40625 121.71875 L 127.042969 120.742188 M 130.359375 121.175781 L 129.628906 119.222656 M 133.308594 120.636719 L 132.21875 117.703125 M 136.257812 120.09375 L 134.804688 116.183594 M 139.210938 119.550781 L 137.390625 114.664062 M 142.160156 119.011719 L 139.980469 113.148438 M 145.113281 118.46875 L 142.566406 111.628906 M 148.0625 117.925781 L 145.152344 110.109375 M 149.242188 117.710938 L 146.1875 109.5 "/>
<path style="fill:none;stroke-width:1.2;stroke-linecap:butt;stroke-linejoin:miter;stroke:rgb(0%,0%,0%);stroke-opacity:1;stroke-miterlimit:10;" d="M 124.457031 122.261719 L 128.941406 146.671875 "/>
<path style="fill:none;stroke-width:1.2;stroke-linecap:butt;stroke-linejoin:miter;stroke:rgb(0%,0%,0%);stroke-opacity:1;stroke-miterlimit:10;" d="M 147.714844 113.605469 L 151.851562 89.132812 "/>
<path style="fill:none;stroke-width:1.2;stroke-linecap:butt;stroke-linejoin:miter;stroke:rgb(0%,0%,0%);stroke-opacity:1;stroke-miterlimit:10;" d="M 151.851562 89.132812 L 175.109375 80.476562 "/>
<path style="fill:none;stroke-width:1;stroke-linecap:butt;stroke-linejoin:miter;stroke:rgb(0%,0%,0%);stroke-opacity:1;stroke-miterlimit:10;" d="M 128.941406 146.671875 L 128.941406 146.671875 M 131.550781 148.152344 L 131.902344 147.167969 M 134.160156 149.632812 L 134.859375 147.667969 M 136.769531 151.117188 L 137.816406 148.167969 M 139.375 152.597656 L 140.773438 148.667969 M 141.984375 154.078125 L 143.734375 149.167969 M 144.59375 155.558594 L 146.691406 149.664062 M 147.203125 157.042969 L 149.648438 150.164062 M 149.8125 158.523438 L 152.609375 150.664062 M 150.855469 159.117188 L 153.792969 150.863281 "/>
<path style="fill:none;stroke-width:1.2;stroke-linecap:butt;stroke-linejoin:miter;stroke:rgb(0%,0%,0%);stroke-opacity:1;stroke-miterlimit:10;" d="M 128.941406 146.671875 L 119.492188 154.714844 "/>
<path style="fill:none;stroke-width:1.2;stroke-linecap:butt;stroke-linejoin:miter;stroke:rgb(0%,0%,100%);stroke-opacity:1;stroke-miterlimit:10;" d="M 119.492188 154.714844 L 110.046875 162.761719 "/>
<path style="fill:none;stroke-width:1.2;stroke-linecap:butt;stroke-linejoin:miter;stroke:rgb(0%,0%,0%);stroke-opacity:1;stroke-miterlimit:10;" d="M 152.324219 154.992188 L 171.222656 138.902344 "/>
<path style="fill:none;stroke-width:1.2;stroke-linecap:butt;stroke-linejoin:miter;stroke:rgb(0%,0%,0%);stroke-opacity:1;stroke-miterlimit:10;" d="M 158 157.828125 L 173.117188 144.957031 "/>
<path style="fill:none;stroke-width:1.2;stroke-linecap:butt;stroke-linejoin:miter;stroke:rgb(0%,0%,0%);stroke-opacity:1;stroke-miterlimit:10;" d="M 156.808594 179.398438 L 152.324219 154.992188 "/>
<path style="fill:none;stroke-width:1.2;stroke-linecap:butt;stroke-linejoin:miter;stroke:rgb(0%,0%,0%);stroke-opacity:1;stroke-miterlimit:10;" d="M 171.222656 138.902344 L 194.601562 147.222656 "/>
<path style="fill:none;stroke-width:1.2;stroke-linecap:butt;stroke-linejoin:miter;stroke:rgb(0%,0%,0%);stroke-opacity:1;stroke-miterlimit:10;" d="M 194.601562 147.222656 L 199.089844 171.628906 "/>
<path style="fill:none;stroke-width:1.2;stroke-linecap:butt;stroke-linejoin:miter;stroke:rgb(0%,0%,0%);stroke-opacity:1;stroke-miterlimit:10;" d="M 189.308594 150.71875 L 192.898438 170.246094 "/>
<path style="fill:none;stroke-width:1.2;stroke-linecap:butt;stroke-linejoin:miter;stroke:rgb(0%,0%,0%);stroke-opacity:1;stroke-miterlimit:10;" d="M 199.089844 171.628906 L 180.191406 187.71875 "/>
<path style="fill:none;stroke-width:1.2;stroke-linecap:butt;stroke-linejoin:miter;stroke:rgb(0%,0%,0%);stroke-opacity:1;stroke-miterlimit:10;" d="M 199.089844 171.628906 L 222.472656 179.949219 "/>
<path style="fill:none;stroke-width:1.2;stroke-linecap:butt;stroke-linejoin:miter;stroke:rgb(0%,0%,0%);stroke-opacity:1;stroke-miterlimit:10;" d="M 180.191406 187.71875 L 156.808594 179.398438 "/>
<path style="fill:none;stroke-width:1.2;stroke-linecap:butt;stroke-linejoin:miter;stroke:rgb(0%,0%,0%);stroke-opacity:1;stroke-miterlimit:10;" d="M 179.8125 181.386719 L 161.105469 174.730469 "/>
<path style="fill:none;stroke-width:1.2;stroke-linecap:butt;stroke-linejoin:miter;stroke:rgb(0%,0%,0%);stroke-opacity:1;stroke-miterlimit:10;" d="M 219.597656 180.480469 L 221.84375 192.683594 "/>
<path style="fill:none;stroke-width:1.2;stroke-linecap:butt;stroke-linejoin:miter;stroke:rgb(100%,0%,0%);stroke-opacity:1;stroke-miterlimit:10;" d="M 221.84375 192.683594 L 224.085938 204.886719 "/>
<path style="fill:none;stroke-width:1.2;stroke-linecap:butt;stroke-linejoin:miter;stroke:rgb(0%,0%,0%);stroke-opacity:1;stroke-miterlimit:10;" d="M 225.34375 179.421875 L 227.585938 191.628906 "/>
<path style="fill:none;stroke-width:1.2;stroke-linecap:butt;stroke-linejoin:miter;stroke:rgb(100%,0%,0%);stroke-opacity:1;stroke-miterlimit:10;" d="M 227.585938 191.628906 L 229.828125 203.832031 "/>
<path style="fill:none;stroke-width:1.2;stroke-linecap:butt;stroke-linejoin:miter;stroke:rgb(0%,0%,0%);stroke-opacity:1;stroke-miterlimit:10;" d="M 222.472656 179.949219 L 231.917969 171.90625 "/>
<path style="fill:none;stroke-width:1.2;stroke-linecap:butt;stroke-linejoin:miter;stroke:rgb(100%,0%,0%);stroke-opacity:1;stroke-miterlimit:10;" d="M 231.917969 171.90625 L 241.367188 163.859375 "/>
<path style=" stroke:none;fill-rule:nonzero;fill:rgb(100%,100%,100%);fill-opacity:1;" d="M 222.957031 198.859375 L 230.957031 198.859375 L 230.957031 209.859375 L 222.957031 209.859375 Z M 222.957031 198.859375 "/>
<g style="fill:rgb(100%,0%,0%);fill-opacity:1;">
  <use xlink:href="#glyph0-1" x="222.957031" y="207.522461"/>
</g>
<path style="fill:none;stroke-width:1.2;stroke-linecap:butt;stroke-linejoin:miter;stroke:rgb(100%,0%,0%);stroke-opacity:1;stroke-miterlimit:10;" d="M 241.367188 163.859375 L 253.058594 168.019531 "/>
<path style="fill:none;stroke-width:1.2;stroke-linecap:butt;stroke-linejoin:miter;stroke:rgb(0%,0%,0%);stroke-opacity:1;stroke-miterlimit:10;" d="M 253.058594 168.019531 L 264.75 172.179688 "/>
<path style=" stroke:none;fill-rule:nonzero;fill:rgb(100%,100%,100%);fill-opacity:1;" d="M 237.367188 158.359375 L 245.367188 158.359375 L 245.367188 169.359375 L 237.367188 169.359375 Z M 237.367188 158.359375 "/>
<g style="fill:rgb(100%,0%,0%);fill-opacity:1;">
  <use xlink:href="#glyph0-1" x="237.367188" y="167.022461"/>
</g>
<path style="fill:none;stroke-width:1.2;stroke-linecap:butt;stroke-linejoin:miter;stroke:rgb(0%,0%,100%);stroke-opacity:1;stroke-miterlimit:10;" d="M 110.046875 162.761719 L 112.289062 174.964844 "/>
<path style="fill:none;stroke-width:1.2;stroke-linecap:butt;stroke-linejoin:miter;stroke:rgb(100%,50%,0%);stroke-opacity:1;stroke-miterlimit:10;" d="M 112.289062 174.964844 L 114.53125 187.167969 "/>
<path style=" stroke:none;fill-rule:nonzero;fill:rgb(100%,100%,100%);fill-opacity:1;" d="M 103.046875 157.261719 L 117.046875 157.261719 L 117.046875 168.261719 L 103.046875 168.261719 Z M 103.046875 157.261719 "/>
<g style="fill:rgb(0%,0%,100%);fill-opacity:1;">
  <use xlink:href="#glyph0-2" x="103.046875" y="165.924805"/>
  <use xlink:href="#glyph0-3" x="110.024414" y="165.924805"/>
</g>
<path style="fill:none;stroke-width:1.2;stroke-linecap:butt;stroke-linejoin:miter;stroke:rgb(100%,50%,0%);stroke-opacity:1;stroke-miterlimit:10;" d="M 111.660156 187.699219 L 113.902344 199.902344 "/>
<path style="fill:none;stroke-width:1.2;stroke-linecap:butt;stroke-linejoin:miter;stroke:rgb(100%,0%,0%);stroke-opacity:1;stroke-miterlimit:10;" d="M 113.902344 199.902344 L 116.144531 212.105469 "/>
<path style="fill:none;stroke-width:1.2;stroke-linecap:butt;stroke-linejoin:miter;stroke:rgb(100%,50%,0%);stroke-opacity:1;stroke-miterlimit:10;" d="M 117.402344 186.640625 L 119.644531 198.847656 "/>
<path style="fill:none;stroke-width:1.2;stroke-linecap:butt;stroke-linejoin:miter;stroke:rgb(100%,0%,0%);stroke-opacity:1;stroke-miterlimit:10;" d="M 119.644531 198.847656 L 121.890625 211.050781 "/>
<path style="fill:none;stroke-width:1.2;stroke-linecap:butt;stroke-linejoin:miter;stroke:rgb(100%,50%,0%);stroke-opacity:1;stroke-miterlimit:10;" d="M 114.53125 187.167969 L 102.328125 189.414062 "/>
<path style="fill:none;stroke-width:1.2;stroke-linecap:butt;stroke-linejoin:miter;stroke:rgb(0%,0%,0%);stroke-opacity:1;stroke-miterlimit:10;" d="M 102.328125 189.414062 L 90.121094 191.65625 "/>
<path style="fill:none;stroke-width:1.2;stroke-linecap:butt;stroke-linejoin:miter;stroke:rgb(100%,50%,0%);stroke-opacity:1;stroke-miterlimit:10;" d="M 114.53125 187.167969 L 126.738281 184.925781 "/>
<path style="fill:none;stroke-width:1.2;stroke-linecap:butt;stroke-linejoin:miter;stroke:rgb(0%,0%,0%);stroke-opacity:1;stroke-miterlimit:10;" d="M 126.738281 184.925781 L 138.941406 182.683594 "/>
<path style=" stroke:none;fill-rule:nonzero;fill:rgb(100%,100%,100%);fill-opacity:1;" d="M 111.53125 181.667969 L 117.53125 181.667969 L 117.53125 192.667969 L 111.53125 192.667969 Z M 111.53125 181.667969 "/>
<g style="fill:rgb(100%,50%,0%);fill-opacity:1;">
  <use xlink:href="#glyph0-4" x="111.53125" y="190.331055"/>
</g>
<path style=" stroke:none;fill-rule:nonzero;fill:rgb(100%,100%,100%);fill-opacity:1;" d="M 115.015625 206.078125 L 123.015625 206.078125 L 123.015625 217.078125 L 115.015625 217.078125 Z M 115.015625 206.078125 "/>
<g style="fill:rgb(100%,0%,0%);fill-opacity:1;">
  <use xlink:href="#glyph0-1" x="115.015625" y="214.741211"/>
</g>
<path style="fill:none;stroke-width:1.2;stroke-linecap:butt;stroke-linejoin:miter;stroke:rgb(0%,0%,0%);stroke-opacity:1;stroke-miterlimit:10;" d="M 90.121094 191.65625 L 74.03125 172.757812 "/>
<path style="fill:none;stroke-width:1.2;stroke-linecap:butt;stroke-linejoin:miter;stroke:rgb(0%,0%,0%);stroke-opacity:1;stroke-miterlimit:10;" d="M 84.066406 193.550781 L 71.195312 178.433594 "/>
<path style="fill:none;stroke-width:1.2;stroke-linecap:butt;stroke-linejoin:miter;stroke:rgb(0%,0%,0%);stroke-opacity:1;stroke-miterlimit:10;" d="M 81.800781 215.039062 L 90.121094 191.65625 "/>
<path style="fill:none;stroke-width:1.2;stroke-linecap:butt;stroke-linejoin:miter;stroke:rgb(0%,0%,0%);stroke-opacity:1;stroke-miterlimit:10;" d="M 74.03125 172.757812 L 49.621094 177.246094 "/>
<path style="fill:none;stroke-width:1.2;stroke-linecap:butt;stroke-linejoin:miter;stroke:rgb(0%,0%,0%);stroke-opacity:1;stroke-miterlimit:10;" d="M 49.621094 177.246094 L 41.300781 200.625 "/>
<path style="fill:none;stroke-width:1.2;stroke-linecap:butt;stroke-linejoin:miter;stroke:rgb(0%,0%,0%);stroke-opacity:1;stroke-miterlimit:10;" d="M 54.292969 181.539062 L 47.636719 200.246094 "/>
<path style="fill:none;stroke-width:1.2;stroke-linecap:butt;stroke-linejoin:miter;stroke:rgb(0%,0%,0%);stroke-opacity:1;stroke-miterlimit:10;" d="M 41.300781 200.625 L 57.390625 219.523438 "/>
<path style="fill:none;stroke-width:1.2;stroke-linecap:butt;stroke-linejoin:miter;stroke:rgb(0%,0%,0%);stroke-opacity:1;stroke-miterlimit:10;" d="M 57.390625 219.523438 L 81.800781 215.039062 "/>
<path style="fill:none;stroke-width:1.2;stroke-linecap:butt;stroke-linejoin:miter;stroke:rgb(0%,0%,0%);stroke-opacity:1;stroke-miterlimit:10;" d="M 58.777344 213.332031 L 78.304688 209.742188 "/>
<path style="fill:none;stroke-width:1.2;stroke-linecap:butt;stroke-linejoin:miter;stroke:rgb(0%,0%,0%);stroke-opacity:1;stroke-miterlimit:10;" d="M 138.941406 182.683594 L 155.03125 201.582031 "/>
<path style="fill:none;stroke-width:1.2;stroke-linecap:butt;stroke-linejoin:miter;stroke:rgb(0%,0%,0%);stroke-opacity:1;stroke-miterlimit:10;" d="M 144.996094 180.789062 L 157.867188 195.90625 "/>
<path style="fill:none;stroke-width:1.2;stroke-linecap:butt;stroke-linejoin:miter;stroke:rgb(0%,0%,0%);stroke-opacity:1;stroke-miterlimit:10;" d="M 147.261719 159.300781 L 138.941406 182.683594 "/>
<path style="fill:none;stroke-width:1.2;stroke-linecap:butt;stroke-linejoin:miter;stroke:rgb(0%,0%,0%);stroke-opacity:1;stroke-miterlimit:10;" d="M 155.03125 201.582031 L 179.441406 197.09375 "/>
<path style="fill:none;stroke-width:1.2;stroke-linecap:butt;stroke-linejoin:miter;stroke:rgb(0%,0%,0%);stroke-opacity:1;stroke-miterlimit:10;" d="M 179.441406 197.09375 L 187.761719 173.710938 "/>
<path style="fill:none;stroke-width:1.2;stroke-linecap:butt;stroke-linejoin:miter;stroke:rgb(0%,0%,0%);stroke-opacity:1;stroke-miterlimit:10;" d="M 174.769531 192.800781 L 181.425781 174.09375 "/>
<path style="fill:none;stroke-width:1.2;stroke-linecap:butt;stroke-linejoin:miter;stroke:rgb(0%,0%,0%);stroke-opacity:1;stroke-miterlimit:10;" d="M 187.761719 173.710938 L 171.671875 154.816406 "/>
<path style="fill:none;stroke-width:1.2;stroke-linecap:butt;stroke-linejoin:miter;stroke:rgb(0%,0%,0%);stroke-opacity:1;stroke-miterlimit:10;" d="M 171.671875 154.816406 L 147.261719 159.300781 "/>
<path style="fill:none;stroke-width:1.2;stroke-linecap:butt;stroke-linejoin:miter;stroke:rgb(0%,0%,0%);stroke-opacity:1;stroke-miterlimit:10;" d="M 170.285156 161.007812 L 150.757812 164.597656 "/>
</g>
</svg>

<svg xmlns="http://www.w3.org/2000/svg" xmlns:xlink="http://www.w3.org/1999/xlink" width="300pt" height="300pt" viewBox="0 0 300 300"><defs><symbol overflow="visible"><path d="M.453 1.594v-7.938h4.5v7.938zm.5-.5h3.5v-6.938h-3.5zm0 0"/></symbol><symbol overflow="visible" id="a"><path d="M3.547-5.953c-.65 0-1.164.242-1.547.72-.375.48-.563 1.13-.563 1.952 0 .835.188 1.49.563 1.967.383.48.898.72 1.547.72.644 0 1.156-.24 1.53-.72.376-.476.564-1.132.564-1.968 0-.822-.187-1.474-.562-1.954-.375-.477-.887-.72-1.53-.72zm0-.734c.914 0 1.648.312 2.203.937.55.617.828 1.438.828 2.47 0 1.042-.277 1.87-.828 2.483-.555.617-1.29.922-2.203.922-.93 0-1.668-.305-2.22-.922C.774-1.41.5-2.237.5-3.28c0-1.033.273-1.853.828-2.47.55-.625 1.29-.938 2.22-.938zm0 0"/></symbol><symbol overflow="visible" id="b"><path d="M.89-6.563H2.08l2.906 5.485v-5.484h.86V0H4.656L1.75-5.484V0H.89zm0 0"/></symbol><symbol overflow="visible" id="c"><path d="M.89-6.563h.876v2.688H5v-2.688h.89V0H5v-3.125H1.766V0H.89zm0 0"/></symbol><symbol overflow="visible" id="d"><path d="M1.766-5.828v2.47H2.89c.407 0 .723-.11.954-.33.226-.218.344-.52.344-.906 0-.394-.118-.695-.344-.906-.23-.22-.547-.328-.953-.328zM.89-6.562h2c.727 0 1.282.167 1.657.5.383.335.578.824.578 1.468 0 .65-.195 1.137-.578 1.47-.375.323-.93.483-1.656.483H1.767V0H.89zm0 0"/></symbol></defs><g><path fill="#fff" d="M0 0h300v300H0z"/><path d="M35.25 135.313l21.402-12.563M56.652 122.75l21.582 12.254" stroke-width="1.2" stroke="#000" stroke-miterlimit="10" fill="none"/><path d="M99.64 122.44m-2.812 1.044l.527.903m-3.34.144l1.055 1.802m-3.867-.754l1.586 2.695m-4.4-1.648l2.114 3.594m-4.922-2.552l2.637 4.496m-5.45-3.45l3.164 5.395m-5.977-4.348l3.695 6.293m-6.507-5.246l4.222 7.19m-5.347-6.773l4.433 7.554" stroke="#000" stroke-miterlimit="10" fill="none"/><path d="M99.64 122.44l12.255-21.58M124.457 122.262l-24.816.18M111.895 100.86l12.562 21.402" stroke-width="1.2" stroke="#000" stroke-miterlimit="10" fill="none"/><path d="M124.457 122.262m2.95-.543l-.364-.978m3.316.434l-.73-1.953m3.68 1.414l-1.09-2.934m4.038 2.39l-1.453-3.91m4.406 3.368l-1.82-4.886m4.77 4.348l-2.18-5.864m5.133 5.32l-2.547-6.84m5.496 6.298l-2.91-7.817m4.09 7.6l-3.054-8.21" stroke="#000" stroke-miterlimit="10" fill="none"/><path d="M124.457 122.262l4.484 24.41M147.715 113.605l4.137-24.472M151.852 89.133l23.257-8.656" stroke-width="1.2" stroke="#000" stroke-miterlimit="10" fill="none"/><path d="M128.94 146.672m2.61 1.48l.352-.984m2.258 2.465l.7-1.965m1.91 3.45l1.046-2.95m1.56 4.43l1.397-3.93m1.21 5.41l1.75-4.91m.86 6.39l2.098-5.894m.513 7.38l2.445-6.88m.165 8.36l2.796-7.86m-1.755 8.453l2.938-8.254" stroke="#000" stroke-miterlimit="10" fill="none"/><path d="M128.94 146.672l-9.448 8.043" stroke-width="1.2" stroke="#000" stroke-miterlimit="10" fill="none"/><path d="M119.492 154.715l-9.445 8.047" stroke-width="1.2" stroke="#00f" stroke-miterlimit="10" fill="none"/><path d="M152.324 154.992l18.9-16.09M158 157.828l15.117-12.87M156.81 179.398l-4.486-24.406M171.223 138.902l23.38 8.32M194.602 147.223l4.488 24.406M189.31 150.72l3.588 19.526M199.09 171.63l-18.9 16.09M199.09 171.63l23.383 8.32M180.19 187.72l-23.38-8.322M179.813 181.387l-18.708-6.657M219.598 180.48l2.246 12.204" stroke-width="1.2" stroke="#000" stroke-miterlimit="10" fill="none"/><path d="M221.844 192.684l2.242 12.203" stroke-width="1.2" stroke="#f00" stroke-miterlimit="10" fill="none"/><path d="M225.344 179.422l2.242 12.207" stroke-width="1.2" stroke="#000" stroke-miterlimit="10" fill="none"/><path d="M227.586 191.63l2.242 12.202" stroke-width="1.2" stroke="#f00" stroke-miterlimit="10" fill="none"/><path d="M222.473 179.95l9.445-8.044" stroke-width="1.2" stroke="#000" stroke-miterlimit="10" fill="none"/><path d="M231.918 171.906l9.45-8.047" stroke-width="1.2" stroke="#f00" stroke-miterlimit="10" fill="none"/><path d="M222.957 198.86h8v11h-8zm0 0" fill="#fff"/><use xlink:href="#a" x="222.957" y="207.522" fill="#f00"/><path d="M241.367 163.86l11.692 4.16" stroke-width="1.2" stroke="#f00" stroke-miterlimit="10" fill="none"/><path d="M253.06 168.02l11.69 4.16" stroke-width="1.2" stroke="#000" stroke-miterlimit="10" fill="none"/><path d="M237.367 158.36h8v11h-8zm0 0" fill="#fff"/><use xlink:href="#a" x="237.367" y="167.022" fill="#f00"/><path d="M110.047 162.762l2.242 12.203" stroke-width="1.2" stroke="#00f" stroke-miterlimit="10" fill="none"/><path d="M112.29 174.965l2.24 12.203" stroke-width="1.2" stroke="#ff7f00" stroke-miterlimit="10" fill="none"/><path d="M103.047 157.262h14v11h-14zm0 0" fill="#fff"/><g fill="#00f"><use xlink:href="#b" x="103.047" y="165.925"/><use xlink:href="#c" x="110.024" y="165.925"/></g><path d="M111.66 187.7l2.242 12.202" stroke-width="1.2" stroke="#ff7f00" stroke-miterlimit="10" fill="none"/><path d="M113.902 199.902l2.243 12.203" stroke-width="1.2" stroke="#f00" stroke-miterlimit="10" fill="none"/><path d="M117.402 186.64l2.243 12.208" stroke-width="1.2" stroke="#ff7f00" stroke-miterlimit="10" fill="none"/><path d="M119.645 198.848l2.246 12.203" stroke-width="1.2" stroke="#f00" stroke-miterlimit="10" fill="none"/><path d="M114.53 187.168l-12.202 2.246" stroke-width="1.2" stroke="#ff7f00" stroke-miterlimit="10" fill="none"/><path d="M102.328 189.414l-12.207 2.242" stroke-width="1.2" stroke="#000" stroke-miterlimit="10" fill="none"/><path d="M114.53 187.168l12.208-2.242" stroke-width="1.2" stroke="#ff7f00" stroke-miterlimit="10" fill="none"/><path d="M126.738 184.926l12.203-2.242" stroke-width="1.2" stroke="#000" stroke-miterlimit="10" fill="none"/><path d="M111.53 181.668h6v11h-6zm0 0" fill="#fff"/><use xlink:href="#d" x="111.531" y="190.331" fill="#ff7f00"/><path d="M115.016 206.078h8v11h-8zm0 0" fill="#fff"/><use xlink:href="#a" x="115.016" y="214.741" fill="#f00"/><path d="M90.12 191.656l-16.09-18.898M84.066 193.55l-12.87-15.116M81.8 215.04l8.32-23.384M74.03 172.758l-24.41 4.488M49.62 177.246l-8.32 23.38M54.293 181.54l-6.656 18.706M41.3 200.625l16.09 18.898M57.39 219.523l24.41-4.484M58.777 213.332l19.528-3.59M138.94 182.684l16.09 18.898M144.996 180.79l12.87 15.116M147.262 159.3l-8.32 23.384M155.03 201.582l24.41-4.488M179.44 197.094l8.322-23.383M174.77 192.8l6.656-18.706M187.762 173.71l-16.09-18.894M171.672 154.816l-24.41 4.485M170.285 161.008l-19.527 3.59" stroke-width="1.2" stroke="#000" stroke-miterlimit="10" fill="none"/></g></svg>
